public/files/perm/themes/base/neo/img/menu_open.svg

<svg fill="none" height="34" viewBox="0 0 34 34" width="34" xmlns="http://www.w3.org/2000/svg"><path d="m25.9265 8.0887c-.5525-.5525-1.445-.5525-1.9975 0l-6.9275 6.9133-6.9275-6.92747c-.55252-.5525-1.44502-.5525-1.99752 0s-.5525 1.445 0 1.99747l6.92752 6.9275-6.92752 6.9275c-.5525.5525-.5525 1.445 0 1.9975s1.445.5525 1.99752 0l6.9275-6.9275 6.9275 6.9275c.5525.5525 1.445.5525 1.9975 0s.5525-1.445 0-1.9975l-6.9275-6.9275 6.9275-6.9275c.5383-.5383.5383-1.44497 0-1.9833z" fill="#002702"/></svg>

<svg width="34" height="34" viewBox="0 0 34 34" fill="none" xmlns="http://www.w3.org/2000/svg">
<path d="M25.9265 8.0887C25.374 7.5362 24.4815 7.5362 23.929 8.0887L17.0015 15.002L10.074 8.07453C9.52148 7.52203 8.62898 7.52203 8.07648 8.07453C7.52398 8.62703 7.52398 9.51953 8.07648 10.072L15.004 16.9995L8.07648 23.927C7.52398 24.4795 7.52398 25.372 8.07648 25.9245C8.62898 26.477 9.52148 26.477 10.074 25.9245L17.0015 18.997L23.929 25.9245C24.4815 26.477 25.374 26.477 25.9265 25.9245C26.479 25.372 26.479 24.4795 25.9265 23.927L18.999 16.9995L25.9265 10.072C26.4648 9.5337 26.4648 8.62703 25.9265 8.0887Z" fill="#002702"/>
</svg>
